dist/img/about-advantages.svg

<svg width="50" height="38" viewBox="0 0 50 38" fill="none" xmlns="http://www.w3.org/2000/svg">
<path d="M47.6073 14.3065C45.5663 9.98033 42.3339 6.34751 38.2616 3.79869C32.5975 0.26353 25.8885 -0.859517 19.3846 0.644389C12.8807 2.13853 7.34363 6.08384 3.80847 11.7479C0.26355 17.412 -0.859497 24.1112 0.644409 30.6249C2.14832 37.1288 6.09363 42.6659 11.7479 46.201C15.7323 48.6913 20.3026 50.0096 24.9803 50.0096H25.2831C29.9413 49.951 34.4725 48.6034 38.3983 46.1229C39.5409 45.4002 39.8729 43.8963 39.1503 42.7538C38.4276 41.6112 36.9237 41.2792 35.7811 42.0018C32.6268 44.0038 28.9745 45.0877 25.2245 45.1366C21.3768 45.1854 17.6171 44.1209 14.3358 42.0799C9.77527 39.2284 6.60144 34.7752 5.40027 29.5409C4.1991 24.3065 5.09753 18.9159 7.9491 14.3553C13.828 4.95103 26.2694 2.07994 35.6737 7.95884C38.955 10.0096 41.5526 12.9295 43.1932 16.4061C44.7948 19.7948 45.4198 23.5545 44.9999 27.2655C44.8534 28.6034 45.8104 29.8143 47.1581 29.9608C48.496 30.1073 49.7069 29.1502 49.8534 27.8026C50.371 23.1835 49.5897 18.5155 47.6073 14.3065Z" fill="#0779FF"/>
<path d="M33.0762 16.5234L21.2988 28.3008L16.9336 23.9355C15.9766 22.9785 14.4336 22.9785 13.4766 23.9355C12.5195 24.8926 12.5195 26.4355 13.4766 27.3926L19.5703 33.4863C20.0488 33.9648 20.6738 34.1992 21.2988 34.1992C21.9238 34.1992 22.5488 33.9648 23.0273 33.4863L36.5234 19.9805C37.4805 19.0234 37.4805 17.4805 36.5234 16.5234C35.5664 15.5762 34.0234 15.5762 33.0762 16.5234Z" fill="#0779FF"/>
</svg>

<svg width="50" height="38" fill="none" xmlns="http://www.w3.org/2000/svg"><path d="M47.607 14.306A24.93 24.93 0 0 0 38.262 3.8C32.597.264 25.889-.86 19.385.644A24.787 24.787 0 0 0 3.808 11.748C.264 17.412-.859 24.11.644 30.625c1.504 6.504 5.45 12.04 11.104 15.576A24.934 24.934 0 0 0 24.98 50.01h.303a25.125 25.125 0 0 0 13.115-3.887 2.436 2.436 0 0 0 .752-3.37 2.436 2.436 0 0 0-3.369-.751 20.18 20.18 0 0 1-10.556 3.135 20.098 20.098 0 0 1-10.89-3.057c-4.56-2.852-7.734-7.305-8.935-12.54-1.2-5.233-.302-10.624 2.55-15.185C13.827 4.951 26.27 2.08 35.673 7.96a20.022 20.022 0 0 1 7.52 8.447A20.119 20.119 0 0 1 45 27.266a2.438 2.438 0 0 0 2.158 2.695 2.438 2.438 0 0 0 2.695-2.158 25.105 25.105 0 0 0-2.246-13.497Z" fill="#0779FF"/><path d="M33.076 16.523 21.3 28.301l-4.365-4.365a2.44 2.44 0 0 0-3.457 0 2.44 2.44 0 0 0 0 3.457l6.093 6.093a2.432 2.432 0 0 0 1.729.713c.625 0 1.25-.234 1.728-.713l13.496-13.505a2.44 2.44 0 1 0-3.447-3.458Z" fill="#0779FF"/></svg>
